images/stand-out-star-bg.svg

<svg width="1290" height="613" viewBox="0 0 1290 613" fill="none" xmlns="http://www.w3.org/2000/svg">
<circle cx="399.006" cy="99.0061" r="3.00606" fill="#F7F6FF"/>
<circle cx="1126.01" cy="254.006" r="3.00606" fill="#F7F6FF"/>
<circle cx="1247.01" cy="43.0061" r="3.00606" fill="#F7F6FF"/>
<circle cx="1150.01" cy="93.0061" r="3.00606" fill="#F7F6FF"/>
<circle cx="749.006" cy="86.0061" r="3.00606" fill="#F7F6FF"/>
<circle cx="882.252" cy="343.504" r="3.00606" fill="#F7F6FF"/>
<circle cx="11.0061" cy="178.006" r="3.00606" fill="#F7F6FF"/>
<circle cx="82.0061" cy="65.0061" r="3.00606" fill="#F7F6FF"/>
<circle cx="142.006" cy="216.006" r="3.00606" fill="#F7F6FF"/>
<circle cx="376.509" cy="73.5091" r="4.50909" fill="#F7F6FF"/>
<circle cx="1191.51" cy="106.509" r="4.50909" fill="#F7F6FF"/>
<path d="M31.5149 80.4045C33.0557 80.7897 34.2588 81.9928 34.644 83.5336L36.0905 89.3194C36.1976 89.7479 36.5826 90.0485 37.0243 90.0485C37.4659 90.0485 37.8509 89.7479 37.958 89.3194L39.4045 83.5336C39.7897 81.9928 40.9928 80.7897 42.5336 80.4045L48.3194 78.958C48.7479 78.8509 49.0485 78.4659 49.0485 78.0243C49.0485 77.5826 48.7479 77.1976 48.3194 77.0905L42.5336 75.644C40.9928 75.2588 39.7897 74.0557 39.4045 72.5149L37.958 66.7291C37.8509 66.3006 37.4659 66 37.0243 66C36.5826 66 36.1976 66.3006 36.0905 66.7291L34.644 72.5149C34.2588 74.0557 33.0557 75.2588 31.5149 75.644L25.7291 77.0905C25.3006 77.1976 25 77.5826 25 78.0242C25 78.4659 25.3006 78.8509 25.7291 78.958L31.5149 80.4045Z" stroke="white" stroke-width="2"/>
<path d="M967.515 14.4045C969.056 14.7897 970.259 15.9928 970.644 17.5336L972.09 23.3194C972.198 23.7479 972.583 24.0485 973.024 24.0485C973.466 24.0485 973.851 23.7479 973.958 23.3194L975.405 17.5336C975.79 15.9928 976.993 14.7897 978.534 14.4045L984.319 12.958C984.748 12.8509 985.049 12.4659 985.049 12.0243C985.049 11.5826 984.748 11.1976 984.319 11.0905L978.534 9.644C976.993 9.2588 975.79 8.05574 975.405 6.51494L973.958 0.729077C973.851 0.300594 973.466 0 973.024 0C972.583 0 972.198 0.300593 972.09 0.729077L970.644 6.51494C970.259 8.05574 969.056 9.2588 967.515 9.644L961.729 11.0905C961.301 11.1976 961 11.5826 961 12.0242C961 12.4659 961.301 12.8509 961.729 12.958L967.515 14.4045Z" fill="#F7F6FF"/>
<path d="M1270.51 207.404C1272.06 207.79 1273.26 208.993 1273.64 210.534L1275.09 216.319C1275.2 216.748 1275.58 217.049 1276.02 217.049C1276.47 217.049 1276.85 216.748 1276.96 216.319L1278.4 210.534C1278.79 208.993 1279.99 207.79 1281.53 207.405L1287.32 205.958C1287.75 205.851 1288.05 205.466 1288.05 205.024C1288.05 204.583 1287.75 204.198 1287.32 204.09L1281.53 202.644C1279.99 202.259 1278.79 201.056 1278.4 199.515L1276.96 193.729C1276.85 193.301 1276.47 193 1276.02 193C1275.58 193 1275.2 193.301 1275.09 193.729L1273.64 199.515C1273.26 201.056 1272.06 202.259 1270.51 202.644L1264.73 204.09C1264.3 204.198 1264 204.583 1264 205.024C1264 205.466 1264.3 205.851 1264.73 205.958L1270.51 207.404Z" stroke="white" stroke-width="2"/>
<path d="M473.515 33.4045C475.056 33.7897 476.259 34.9928 476.644 36.5336L478.09 42.3194C478.198 42.7479 478.583 43.0485 479.024 43.0485C479.466 43.0485 479.851 42.7479 479.958 42.3194L481.405 36.5336C481.79 34.9928 482.993 33.7897 484.534 33.4045L490.319 31.958C490.748 31.8509 491.049 31.4659 491.049 31.0243C491.049 30.5826 490.748 30.1976 490.319 30.0905L484.534 28.644C482.993 28.2588 481.79 27.0557 481.405 25.5149L479.958 19.7291C479.851 19.3006 479.466 19 479.024 19C478.583 19 478.198 19.3006 478.09 19.7291L476.644 25.5149C476.259 27.0557 475.056 28.2588 473.515 28.644L467.729 30.0905C467.301 30.1976 467 30.5826 467 31.0242C467 31.4659 467.301 31.8509 467.729 31.958L473.515 33.4045Z" fill="#F7F6FF"/>
<path d="M7.51493 601.404C9.05574 601.79 10.2588 602.993 10.644 604.534L12.0905 610.319C12.1976 610.748 12.5826 611.049 13.0243 611.049C13.4659 611.049 13.8509 610.748 13.958 610.319L15.4045 604.534C15.7897 602.993 16.9928 601.79 18.5336 601.405L24.3194 599.958C24.7479 599.851 25.0485 599.466 25.0485 599.024C25.0485 598.583 24.7479 598.198 24.3194 598.09L18.5336 596.644C16.9928 596.259 15.7897 595.056 15.4045 593.515L13.958 587.729C13.8509 587.301 13.4659 587 13.0243 587C12.5826 587 12.1976 587.301 12.0905 587.729L10.644 593.515C10.2588 595.056 9.05574 596.259 7.51494 596.644L1.72908 598.09C1.30059 598.198 1 598.583 1 599.024C1 599.466 1.30059 599.851 1.72908 599.958L7.51493 601.404Z" stroke="white" stroke-width="2"/>
<path d="M1085.26 160.202C1086.03 160.395 1086.63 160.996 1086.82 161.767L1087.55 164.66C1087.6 164.874 1087.79 165.024 1088.01 165.024C1088.23 165.024 1088.43 164.874 1088.48 164.66L1089.2 161.767C1089.39 160.996 1090 160.395 1090.77 160.202L1093.66 159.479C1093.87 159.425 1094.02 159.233 1094.02 159.012C1094.02 158.791 1093.87 158.599 1093.66 158.545L1090.77 157.822C1090 157.629 1089.39 157.028 1089.2 156.257L1088.48 153.365C1088.43 153.15 1088.23 153 1088.01 153C1087.79 153 1087.6 153.15 1087.55 153.365L1086.82 156.257C1086.63 157.028 1086.03 157.629 1085.26 157.822L1082.36 158.545C1082.15 158.599 1082 158.791 1082 159.012C1082 159.233 1082.15 159.425 1082.36 159.479L1085.26 160.202Z" stroke="white" stroke-width="2"/>
</svg>

<svg xmlns="http://www.w3.org/2000/svg" width="1290" height="613" fill="none"><circle cx="399.006" cy="99.006" r="3.006" fill="#F7F6FF"/><circle cx="1126.01" cy="254.006" r="3.006" fill="#F7F6FF"/><circle cx="1247.01" cy="43.006" r="3.006" fill="#F7F6FF"/><circle cx="1150.01" cy="93.006" r="3.006" fill="#F7F6FF"/><circle cx="749.006" cy="86.006" r="3.006" fill="#F7F6FF"/><circle cx="882.252" cy="343.504" r="3.006" fill="#F7F6FF"/><circle cx="11.006" cy="178.006" r="3.006" fill="#F7F6FF"/><circle cx="82.006" cy="65.006" r="3.006" fill="#F7F6FF"/><circle cx="142.006" cy="216.006" r="3.006" fill="#F7F6FF"/><circle cx="376.509" cy="73.509" r="4.509" fill="#F7F6FF"/><circle cx="1191.51" cy="106.509" r="4.509" fill="#F7F6FF"/><path stroke="#fff" stroke-width="2" d="M31.515 80.404a4.3 4.3 0 0 1 3.129 3.13l1.447 5.785a.963.963 0 0 0 1.867 0l1.447-5.785a4.3 4.3 0 0 1 3.129-3.13l5.785-1.446a.962.962 0 0 0 0-1.867l-5.785-1.447a4.3 4.3 0 0 1-3.13-3.13l-1.446-5.785a.962.962 0 0 0-1.867 0l-1.447 5.786a4.3 4.3 0 0 1-3.13 3.129l-5.785 1.447a.962.962 0 0 0 0 1.867l5.786 1.447Z"/><path fill="#F7F6FF" d="M967.515 14.405a4.3 4.3 0 0 1 3.129 3.129l1.446 5.785a.964.964 0 0 0 1.868 0l1.447-5.785a4.3 4.3 0 0 1 3.129-3.13l5.785-1.446a.963.963 0 0 0 0-1.867l-5.785-1.447a4.3 4.3 0 0 1-3.129-3.13L973.958.73a.962.962 0 0 0-1.868 0l-1.446 5.786a4.3 4.3 0 0 1-3.129 3.129l-5.786 1.447a.963.963 0 0 0 0 1.867l5.786 1.447Z"/><path stroke="#fff" stroke-width="2" d="M1270.51 207.404a4.281 4.281 0 0 1 3.13 3.13l1.45 5.785a.962.962 0 0 0 1.87 0l1.44-5.785a4.31 4.31 0 0 1 3.13-3.129l5.79-1.447a.962.962 0 0 0 0-1.868l-5.79-1.446a4.31 4.31 0 0 1-3.13-3.129l-1.44-5.786a.965.965 0 0 0-1.87 0l-1.45 5.786a4.278 4.278 0 0 1-3.13 3.129l-5.78 1.446a.963.963 0 0 0 0 1.868l5.78 1.446Z"/><path fill="#F7F6FF" d="M473.515 33.404a4.3 4.3 0 0 1 3.129 3.13l1.446 5.785a.964.964 0 0 0 1.868 0l1.447-5.785a4.3 4.3 0 0 1 3.129-3.13l5.785-1.446a.963.963 0 0 0 0-1.867l-5.785-1.447a4.3 4.3 0 0 1-3.129-3.13l-1.447-5.785a.962.962 0 0 0-1.868 0l-1.446 5.786a4.3 4.3 0 0 1-3.129 3.129l-5.786 1.447a.963.963 0 0 0 0 1.867l5.786 1.447Z"/><path stroke="#fff" stroke-width="2" d="M7.515 601.404a4.303 4.303 0 0 1 3.129 3.13l1.447 5.785a.963.963 0 0 0 1.867 0l1.447-5.785a4.3 4.3 0 0 1 3.129-3.129l5.785-1.447a.962.962 0 0 0 0-1.868l-5.785-1.446a4.3 4.3 0 0 1-3.13-3.129l-1.446-5.786a.963.963 0 0 0-1.867 0l-1.447 5.786a4.3 4.3 0 0 1-3.13 3.129L1.73 598.09a.964.964 0 0 0 0 1.868l5.786 1.446ZM1085.26 160.202c.77.193 1.37.794 1.56 1.565l.73 2.893a.47.47 0 0 0 .46.364c.22 0 .42-.15.47-.364l.72-2.893c.19-.771.8-1.372 1.57-1.565l2.89-.723a.482.482 0 0 0 0-.934l-2.89-.723a2.154 2.154 0 0 1-1.57-1.565l-.72-2.892a.482.482 0 0 0-.47-.365.47.47 0 0 0-.46.365l-.73 2.892a2.141 2.141 0 0 1-1.56 1.565l-2.9.723a.482.482 0 0 0 0 .934l2.9.723Z"/></svg>
